icons/git-pull-request-draft-24.svg

<svg xmlns="http://www.w3.org/2000/svg" width="24" height="24" viewBox="0 0 24 24"><path d="M4.75 1.5a3.25 3.25 0 01.745 6.414A.827.827 0 015.5 8v8a.827.827 0 01-.005.086A3.25 3.25 0 014.75 22.5a3.25 3.25 0 01-.745-6.414A.827.827 0 014 16V8c0-.029.002-.057.005-.086A3.25 3.25 0 014.75 1.5zM16 19.25a3.25 3.25 0 116.5 0 3.25 3.25 0 01-6.5 0zM3 4.75a1.75 1.75 0 103.501-.001A1.75 1.75 0 003 4.75zm0 14.5a1.75 1.75 0 103.501-.001A1.75 1.75 0 003 19.25zm16.25-1.75a1.75 1.75 0 10.001 3.501 1.75 1.75 0 00-.001-3.501zm0-11.5a1.75 1.75 0 100-3.5 1.75 1.75 0 000 3.5zM21 11.25a1.75 1.75 0 11-3.5 0 1.75 1.75 0 013.5 0z"/></svg>

<svg xmlns="http://www.w3.org/2000/svg" width="24" height="24" viewBox="0 0 24 24">
  <defs/>
  <path d="M4.75,1.5 C6.398,1.503 7.783,2.739 7.973,4.376 C8.163,6.013 7.098,7.533 5.495,7.914 C5.498,7.943 5.5,7.971 5.5,8 L5.5,16 C5.5,16.029 5.498,16.057 5.495,16.086 C7.102,16.463 8.171,17.985 7.981,19.625 C7.79,21.265 6.401,22.501 4.75,22.5 C3.102,22.497 1.717,21.261 1.527,19.624 C1.337,17.987 2.402,16.467 4.005,16.086 C4.002,16.057 4,16.029 4,16 L4,8 C4,7.971 4.002,7.943 4.005,7.914 C2.398,7.537 1.329,6.015 1.519,4.375 C1.71,2.735 3.099,1.499 4.75,1.5 Z M16,19.25 C16,17.455 17.455,16 19.25,16 C21.045,16 22.5,17.455 22.5,19.25 C22.5,21.045 21.045,22.5 19.25,22.5 C17.455,22.5 16,21.045 16,19.25 Z M3,4.75 C3,5.716 3.784,6.5 4.75,6.5 C5.716,6.5 6.5,5.716 6.5,4.75 C6.5,3.784 5.716,3 4.75,3 C3.784,3 3,3.784 3,4.75 Z M3,19.25 C3,20.216 3.784,21 4.75,21 C5.716,21 6.5,20.216 6.5,19.25 C6.5,18.284 5.716,17.5 4.75,17.5 C3.784,17.5 3,18.284 3,19.25 Z M19.25,17.5 C18.284,17.5 17.5,18.284 17.5,19.25 C17.5,20.216 18.284,21 19.25,21 C20.216,21 21,20.216 21,19.25 C21,18.284 20.216,17.5 19.25,17.5 Z"/>
  <path d="M19.25,6 A1.75 1.75 0 1 0 19.25,2.5 A1.75 1.75 0 0 0 19.25,6 Z M21,11.25 A1.75 1.75 0 1 1 17.5,11.25 A1.75 1.75 0 0 1 21,11.25 Z"/>
</svg>
